!!!OTL: Eng tirgeiesch Freiesch (78b), S. 216
!!!id: T0229
**kern
*clefG2
*k[]
*G:
{8d
=1
16g
16g
8g
8g
8b
8a
8g
=2
2a}
8r
=3
{8d
=4
16a
16a
8a
8a
8cc
8b
8a
=5
2b}
8r
=6
{8dd
=7
16dd
16dd
8dd
8dd
8ee
8dd}
=8
{8cc
=9
8b
8a
8b
8dd
8cc
8b
=10
4a
8r
4.dd
=11
2b}
8r
==
*-
!!!minrhy: 16
!!!meters: 6/8 ]  ZZ[4
!!!cut: Eng tirgeiesch Freiesch (78b), S. 216
!!!reg: Luxemburg
!!!trd: Singendes Volk, Esch-Alzette 1937 posth.
!!!rhy1: X_  XXX_X_X_X_X_  X___0_
!!!rhy2: X_  XXX_X_X_X_X_  X___0_
!!!key: T0229  16  G 6/8 ]  ZZ[4
!!!mod: SECHSTONSKALA DUR ?]  AMBITUS[9
!!!kad: 2353
!!!akz: 1322_2433_56_352533_
!!!fot: 'a__as'b__c__
!!!for: 'a__a__aw_b__
!!!fok: '/__/__-__Sd_
!! PHRAS[AUFTAKTIG]
!!!fkt: Liebeslieder
!!!bem1: Lullingen, hhh Franz Feyder, 1890,
!!!bem2: mitgeteilt: hhh Heinrich Godefroid (Lehrer)
!! THILL, Mathias:
!! PR[37] 2K[9] 2G[7] 3K[0] 3G[2] 4A[11] 4Ü[0] 5A[0] 6K[0] 6G[2]
!! 7K[0] 7G[0] 8A[0] MEHR[0] SI[30] ABS[46] SR[15] SP[15]
!! ST[12] 2k[9] 2g[4] 3k[7] 3g[9] 4d[4] 4ü[0] 5d[0] 6k[0] 6g[0]
!! 7k[0] 7g[0] 8d[0] mehr[0] si[33] dm[-3] sr[13] sp[20]
!! 1F[12] 2F[57] 3F[16] 4F[0] LF[0] 2P[0] 3P[16] 4P[0] TRI[0] DF[4] AB[51]
!! TF[0] U3K[0] U3[0] U4[0] U4Ü[0] U5[11] U6K[0] U6[0] U7K[0] U7[9]
!! N1[34] N2K[2] N2[17] N3K[0] N3[23] N4[2] N4Ü[0] N5[2] N6K[0] N6[0]
!!!n7k: 0] N7[0] O1[0] O2K[0] O2[0] O3K[0] O3[0] HÖ[0
